packages/icons/src/SVG/calendar.svg

<!-- Generated by IcoMoon.io -->
<svg version="1.1" xmlns="http://www.w3.org/2000/svg" width="12" height="12" viewBox="0 0 12 12">
<title>calendar</title>
<path d="M3.996 0v1.008h4.008v-1.008h0.996v1.008h3v10.992h-12v-10.992h3v-1.008h0.996zM11.004 4.008h-10.008v6.996h10.008v-6.996zM9 2.004h-0.996v0.996h0.996v-0.996zM3.996 2.004h-0.996v0.996h0.996v-0.996z"></path>
</svg>

<svg width="12" height="12" viewBox="0 0 12 12" >
<path d="M4 0V1H8V0H9V1H12V12H0V1H3V0H4ZM11 4H1V11H11V4ZM9 2H8V3H9V2ZM4 2H3V3H4V2Z" />
</svg>
